icons/qutim-default/scalable/actions/im-kick-user.svg

<?xml version="1.0" encoding="UTF-8" standalone="no"?>
<!-- Created with Inkscape (http://www.inkscape.org/) -->

<svg
   xmlns:dc="http://purl.org/dc/elements/1.1/"
   xmlns:cc="http://creativecommons.org/ns#"
   xmlns:rdf="http://www.w3.org/1999/02/22-rdf-syntax-ns#"
   xmlns:svg="http://www.w3.org/2000/svg"
   xmlns="http://www.w3.org/2000/svg"
   xmlns:xlink="http://www.w3.org/1999/xlink"
   xmlns:sodipodi="http://sodipodi.sourceforge.net/DTD/sodipodi-0.dtd"
   xmlns:inkscape="http://www.inkscape.org/namespaces/inkscape"
   inkscape:version="0.48.4 r9939"
   version="1.1"
   id="svg2"
   height="1000"
   width="1000"
   sodipodi:docname="im-kick-user.svg">
  <defs
     id="defs4">
    <linearGradient
       inkscape:collect="always"
       id="linearGradient3806">
      <stop
         style="stop-color:#fff6d5;stop-opacity:1;"
         offset="0"
         id="stop3808" />
      <stop
         style="stop-color:#fff6d5;stop-opacity:0;"
         offset="1"
         id="stop3810" />
    </linearGradient>
    <linearGradient
       inkscape:collect="always"
       xlink:href="#linearGradient3290-7"
       id="linearGradient3330"
       gradientUnits="userSpaceOnUse"
       gradientTransform="matrix(7.6118818,0,0,7.611881,13.839539,64.408421)"
       x1="47.609753"
       y1="121.36586"
       x2="47.609753"
       y2="6.6341324" />
    <linearGradient
       id="linearGradient3290-7">
      <stop
         id="stop3292-2"
         offset="0"
         style="stop-color:#ba0000;stop-opacity:1;" />
      <stop
         id="stop3294-3"
         offset="1"
         style="stop-color:#ff331e;stop-opacity:1;" />
    </linearGradient>
    <linearGradient
       inkscape:collect="always"
       xlink:href="#linearGradient3806"
       id="linearGradient3067"
       gradientUnits="userSpaceOnUse"
       gradientTransform="matrix(7.6118818,0,0,7.611881,13.839539,12.046238)"
       x1="64.682068"
       y1="6.8564072"
       x2="65.931267"
       y2="126.76496" />
  </defs>
  <sodipodi:namedview
     id="base"
     pagecolor="#ffffff"
     bordercolor="#666666"
     borderopacity="1.0"
     inkscape:pageopacity="0.0"
     inkscape:pageshadow="2"
     inkscape:zoom="0.631"
     inkscape:cx="500"
     inkscape:cy="500"
     inkscape:document-units="px"
     inkscape:current-layer="layer1"
     showgrid="false"
     inkscape:window-width="1440"
     inkscape:window-height="848"
     inkscape:window-x="-8"
     inkscape:window-y="-8"
     inkscape:window-maximized="1"
     inkscape:snap-bbox="false"
     inkscape:snap-global="false"
     showguides="true"
     inkscape:guide-bbox="true">
    <sodipodi:guide
       orientation="1,0"
       position="1000.051,496.99505"
       id="guide3221" />
    <sodipodi:guide
       orientation="0,1"
       position="-909.13728,0"
       id="guide3230" />
    <inkscape:grid
       type="xygrid"
       id="grid3281" />
  </sodipodi:namedview>
  <metadata
     id="metadata7">
    <rdf:RDF>
      <cc:Work
         rdf:about="">
        <dc:format>image/svg+xml</dc:format>
        <dc:type
           rdf:resource="http://purl.org/dc/dcmitype/StillImage" />
        <dc:title />
      </cc:Work>
    </rdf:RDF>
  </metadata>
  <g
     inkscape:label="Layer 1"
     inkscape:groupmode="layer"
     id="layer1"
     transform="translate(0,-52.362183)">
    <path
       sodipodi:type="inkscape:offset"
       inkscape:radius="0.81513637"
       inkscape:original="M 48 26.96875 C 35.85329 26.96875 25.96875 36.853291 25.96875 49 C 25.96875 61.146707 35.85329 71.03125 48 71.03125 C 60.146709 71.03125 70.03125 61.146707 70.03125 49 C 70.03125 36.853291 60.146709 26.96875 48 26.96875 z M 48 37.34375 C 54.443426 37.34375 59.65625 42.556575 59.65625 49 C 59.65625 49.867734 59.35582 50.656275 59.15625 51.46875 L 45.53125 37.84375 C 46.342738 37.644295 47.12962 37.34375 48 37.34375 z M 36.84375 46 L 51 60.15625 C 50.031743 60.440136 49.045015 60.65625 48 60.65625 C 41.556575 60.65625 36.34375 55.443423 36.34375 49 C 36.34375 47.957928 36.559796 46.969402 36.84375 46 z "
       style="opacity:0.1;fill:#000000;fill-opacity:1;stroke:none;display:inline"
       id="path3799"
       d="M 48,26.15625 C 35.411072,26.15625 25.15625,36.411073 25.15625,49 25.15625,61.588926 35.411071,71.84375 48,71.84375 60.588928,71.84375 70.84375,61.588926 70.84375,49 70.84375,36.411073 60.588927,26.15625 48,26.15625 z m 0,12 c 6.003788,0 10.84375,4.839963 10.84375,10.84375 0,0.252184 -0.131302,0.574979 -0.1875,0.84375 l -11.5,-11.5 c 0.268749,-0.0562 0.590398,-0.1875 0.84375,-0.1875 z m -10.625,9.5 L 49.34375,59.625 C 48.900056,59.702453 48.450173,59.84375 48,59.84375 41.996213,59.84375 37.15625,55.003785 37.15625,49 c 0,-0.448616 0.141288,-0.899778 0.21875,-1.34375 z"
       transform="matrix(20.793434,0,0,20.793434,-497.08482,-446.51609)" />
    <path
       sodipodi:type="inkscape:offset"
       inkscape:radius="0.96724075"
       inkscape:original="M 48 27.9375 C 36.376978 27.9375 26.9375 37.376979 26.9375 49 C 26.9375 60.623019 36.376978 70.0625 48 70.0625 C 59.623021 70.0625 69.0625 60.623019 69.0625 49 C 69.0625 37.376979 59.623021 27.9375 48 27.9375 z M 48 36.375 C 54.967085 36.375 60.625 42.032916 60.625 49 C 60.625 50.577229 60.283926 52.045362 59.75 53.4375 L 43.5625 37.25 C 44.954494 36.715161 46.419083 36.375 48 36.375 z M 36.40625 44.1875 L 52.8125 60.59375 C 51.320395 61.218498 49.718363 61.625 48 61.625 C 41.032916 61.625 35.375 55.967082 35.375 49 C 35.375 47.285314 35.782579 45.679626 36.40625 44.1875 z "
       style="opacity:0.15;fill:#000000;fill-opacity:1;stroke:none;display:inline"
       id="path3795"
       d="M 48,26.96875 C 35.85329,26.96875 25.96875,36.853291 25.96875,49 25.96875,61.146707 35.85329,71.03125 48,71.03125 60.146709,71.03125 70.03125,61.146707 70.03125,49 70.03125,36.853291 60.146709,26.96875 48,26.96875 z m 0,10.375 c 6.443426,0 11.65625,5.212825 11.65625,11.65625 0,0.867734 -0.30043,1.656275 -0.5,2.46875 l -13.625,-13.625 c 0.811488,-0.199455 1.59837,-0.5 2.46875,-0.5 z M 36.84375,46 51,60.15625 c -0.968257,0.283886 -1.954985,0.5 -3,0.5 -6.443425,0 -11.65625,-5.212827 -11.65625,-11.65625 0,-1.042072 0.216046,-2.030598 0.5,-3 z"
       transform="matrix(20.793434,0,0,20.793434,-497.08482,-446.51609)" />
    <path
       sodipodi:type="inkscape:offset"
       inkscape:radius="0.56744033"
       inkscape:original="M 48 28.5 C 36.683999 28.5 27.5 37.684 27.5 49 C 27.5 60.315998 36.683999 69.5 48 69.5 C 59.316 69.5 68.5 60.315998 68.5 49 C 68.5 37.684 59.316 28.5 48 28.5 z M 48 35.8125 C 55.27457 35.8125 61.1875 41.725431 61.1875 49 C 61.1875 50.965932 60.741657 52.823737 59.96875 54.5 L 42.5 37.03125 C 44.178707 36.2556 46.03036 35.8125 48 35.8125 z M 36.1875 43.15625 L 53.84375 60.8125 C 52.080905 61.687867 50.100532 62.1875 48 62.1875 C 40.725431 62.1875 34.8125 56.274567 34.8125 49 C 34.8125 46.903103 35.314968 44.916816 36.1875 43.15625 z "
       style="opacity:0.3;fill:#000000;fill-opacity:1;stroke:none;display:inline"
       id="path3791"
       d="M 48,27.9375 C 36.376978,27.9375 26.9375,37.376979 26.9375,49 26.9375,60.623019 36.376978,70.0625 48,70.0625 59.623021,70.0625 69.0625,60.623019 69.0625,49 69.0625,37.376979 59.623021,27.9375 48,27.9375 z m 0,8.4375 c 6.967085,0 12.625,5.657916 12.625,12.625 0,1.577229 -0.341074,3.045362 -0.875,4.4375 L 43.5625,37.25 C 44.954494,36.715161 46.419083,36.375 48,36.375 z M 36.40625,44.1875 52.8125,60.59375 C 51.320395,61.218498 49.718363,61.625 48,61.625 41.032916,61.625 35.375,55.967082 35.375,49 c 0,-1.714686 0.407579,-3.320374 1.03125,-4.8125 z"
       transform="matrix(20.793434,0,0,20.793434,-497.08482,-446.51609)" />
    <path
       style="fill:url(#linearGradient3330);fill-opacity:1;stroke:#a00000;stroke-width:20;stroke-linecap:round;stroke-linejoin:miter;stroke-miterlimit:4;stroke-opacity:1;stroke-dasharray:none;display:inline"
       d="m 501.00003,125.30336 c -235.29851,0 -426.265401,190.96689 -426.265401,426.2654 0,235.29912 190.966891,426.26611 426.265401,426.26611 235.2985,0 426.2654,-190.96699 426.2654,-426.26611 0,-235.29851 -190.9669,-426.2654 -426.2654,-426.2654 z m 0,152.23765 c 151.2633,0 274.0277,122.76447 274.0277,274.02775 0,40.87844 -9.1428,79.56047 -25.2143,114.4165 L 386.34608,302.75516 c 34.90595,-16.12844 73.69838,-25.21415 114.65395,-25.21415 z m -245.4831,152.71325 367.0353,366.79824 c -36.6555,18.20051 -77.875,28.54316 -121.5522,28.54316 -151.26328,0 -274.02773,-122.76446 -274.02773,-274.0269 0,-43.60176 10.40171,-84.70623 28.54463,-121.3145 z"
       id="path2424"
       inkscape:connector-curvature="0" />
    <path
       style="fill:url(#linearGradient3067);fill-opacity:1;stroke:none;stroke-width:20;stroke-linecap:round;stroke-linejoin:miter;stroke-miterlimit:4;stroke-opacity:1;stroke-dasharray:none;display:inline;opacity:0.50000000000000000"
       d="M 501 72.9375 C 265.70149 72.9375 74.75 263.92024 74.75 499.21875 C 74.75 511.69144 75.292423 524.01703 76.34375 536.21875 C 95.114358 318.22222 278.16587 146.9375 501 146.9375 C 723.83413 146.9375 906.88564 318.22222 925.65625 536.21875 C 926.70758 524.01703 927.25 511.69144 927.25 499.21875 C 927.25 263.92024 736.2985 72.9375 501 72.9375 z M 441.65625 305.6875 C 422.38485 309.97602 403.87312 316.30673 386.34375 324.40625 L 749.8125 687.625 C 765.884 652.76897 775.03125 614.09719 775.03125 573.21875 C 775.03125 560.63121 774.14595 548.23226 772.5 536.09375 C 768.75937 563.41576 760.96282 589.44207 749.8125 613.625 L 441.65625 305.6875 z M 229.5 536.28125 C 227.84408 548.35502 226.96875 560.68476 226.96875 573.21875 C 226.96875 724.48119 349.73672 847.21875 501 847.21875 C 544.6772 847.21875 585.907 836.88801 622.5625 818.6875 L 568.59375 764.75 C 546.98013 770.27692 524.33839 773.21875 501 773.21875 C 362.31362 773.21875 247.6198 670.02441 229.5 536.28125 z "
       transform="translate(0,52.362183)"
       id="path2999" />
  </g>
</svg>

<svg xmlns="http://www.w3.org/2000/svg" viewBox="0 0 1000 1000">
<defs>
<linearGradient gradientTransform="matrix(7.61188 0 0 7.61188 13.83954 12.04624)" xlink:href="#linearGradient3806" id="linearGradient3067" y1="6.856" x1="64.682" y2="126.765" gradientUnits="userSpaceOnUse" x2="65.931"/>
<linearGradient id="linearGradient3290-7">
<stop offset="0" stop-color="#ba0000"/>
<stop offset="1" stop-color="#ff331e"/>
</linearGradient>
<linearGradient id="linearGradient3806">
<stop offset="0" stop-color="#fff6d5"/>
<stop offset="1" stop-color="#fff6d5" stop-opacity="0"/>
</linearGradient>
<linearGradient gradientTransform="matrix(7.61188 0 0 7.61188 13.83954 64.40842)" xlink:href="#linearGradient3290-7" id="linearGradient3330" y1="121.366" y2="6.634" gradientUnits="userSpaceOnUse" x2="0"/>
</defs>
<g transform="translate(0 -52.36218)">
<path opacity=".1" d="m48,26.1562c-12.5889,0-22.8438,10.2548-22.8438,22.8438c0,12.5889 10.2548,22.8438 22.8438,22.8438c12.5889,0 22.8438-10.2548 22.8438-22.8438c0-12.5889-10.2548-22.8438-22.8438-22.8438zm0,12c6.0038,0 10.8438,4.84 10.8438,10.8438c0,.2522-.1313,.575-.1875,.8438l-11.5-11.5c.2687-.0562 .5904-.1875 .8438-.1875zm-10.625,9.5l11.9688,11.9688c-.4437,.0775-.8936,.2188-1.3438,.2188c-6.0038,0-10.8438-4.84-10.8438-10.8438c0-.4486 .1413-.8998 .2188-1.3438z" transform="matrix(20.79343 0 0 20.79343 -497.08482 -446.51609)"/>
<path opacity=".15" d="m48,26.9688c-12.1467,0-22.0312,9.8845-22.0312,22.0312c0,12.1467 9.8845,22.0312 22.0312,22.0312c12.1467,0 22.0312-9.8845 22.0312-22.0312c0-12.1467-9.8845-22.0312-22.0312-22.0312zm0,10.375c6.4434,0 11.6562,5.2128 11.6562,11.6562c0,.8677-.3004,1.6563-.5,2.4688l-13.625-13.625c.8115-.1995 1.5984-.5 2.4688-.5zm-11.1562,8.6562 14.1562,14.1562c-.9683,.2839-1.955,.5-3,.5c-6.4434,0-11.6562-5.2128-11.6562-11.6562c0-1.0421 .216-2.0306 .5-3z" transform="matrix(20.79343 0 0 20.79343 -497.08482 -446.51609)"/>
<path opacity=".3" d="m48,27.9375c-11.623,0-21.0625,9.4395-21.0625,21.0625c0,11.623 9.4395,21.0625 21.0625,21.0625c11.623,0 21.0625-9.4395 21.0625-21.0625c0-11.623-9.4395-21.0625-21.0625-21.0625zm0,8.4375c6.9671,0 12.625,5.6579 12.625,12.625c0,1.5772-.3411,3.0454-.875,4.4375l-16.1875-16.1875c1.392-.5348 2.8566-.875 4.4375-.875zm-11.5938,7.8125 16.4062,16.4062c-1.4921,.6247-3.0941,1.0312-4.8125,1.0312c-6.9671,0-12.625-5.6579-12.625-12.625c0-1.7147 .4076-3.3204 1.0312-4.8125z" transform="matrix(20.79343 0 0 20.79343 -497.08482 -446.51609)"/>
<path fill="url(#linearGradient3330)" stroke="#a00000" stroke-linecap="round" stroke-width="20" d="m501,125.3034c-235.2985,0-426.2654,190.9669-426.2654,426.2654c0,235.2991 190.9669,426.2661 426.2654,426.2661c235.2985,0 426.2654-190.967 426.2654-426.2661c0-235.2985-190.9669-426.2654-426.2654-426.2654zm0,152.2377c151.2633,0 274.0277,122.7645 274.0277,274.0278c0,40.8784-9.1428,79.5605-25.2143,114.4165l-363.4673-363.2301c34.906-16.1284 73.6984-25.2142 114.654-25.2142zm-245.4831,152.7132 367.0353,366.7982c-36.6555,18.2005-77.875,28.5432-121.5522,28.5432c-151.2633,0-274.0277-122.7645-274.0277-274.0269c0-43.6018 10.4017-84.7062 28.5446-121.3145z"/>
<path opacity=".5" fill="url(#linearGradient3067)" d="m501,72.9375c-235.2985,0-426.25,190.9827-426.25,426.2812c0,12.4727 .5424,24.7983 1.5938,37c18.7706-217.9965 201.8221-389.2812 424.6562-389.2812c222.8341,0 405.8856,171.2847 424.6562,389.2812c1.0513-12.2017 1.5938-24.5273 1.5938-37c0-235.2985-190.9515-426.2812-426.25-426.2812zm-59.3438,232.75c-19.2714,4.2885-37.7831,10.6192-55.3125,18.7188l363.4688,363.2188c16.0715-34.856 25.2188-73.5278 25.2188-114.4062c0-12.5875-.8853-24.9865-2.5312-37.125c-3.7406,27.322-11.5372,53.3483-22.6875,77.5312l-308.1562-307.9375zm-212.1562,230.5938c-1.6559,12.0738-2.5312,24.4035-2.5312,36.9375c0,151.2624 122.768,274 274.0312,274c43.6772,0 84.907-10.3307 121.5625-28.5312l-53.9688-53.9375c-21.6136,5.5269-44.2554,8.4688-67.5938,8.4688c-138.6864,0-253.3802-103.1943-271.5-236.9375z" transform="translate(0 52.36218)"/>
</g>
</svg>
